epam-assets/icon-sources/18/Behance.svg

<svg width="18" height="18" viewBox="0 0 18 18" fill="none" xmlns="http://www.w3.org/2000/svg">
<g id="18/Behance">
<g id="icon">
<path d="M14.4657 5.46802H11.0116V6.49894H14.4657V5.46802Z" fill="#6C6F80"/>
<path fill-rule="evenodd" clip-rule="evenodd" d="M6.60674 13.347C6.60674 13.347 9.26554 13.4314 9.26554 10.876C9.26554 10.876 9.38164 8.7971 7.69756 8.7971C7.69756 8.7971 8.97502 8.70179 8.97502 7.20388C8.97502 5.70599 7.93023 4.97498 6.60674 4.97498H2.25V13.347H6.60674ZM6.60706 9.62188H4.16953V11.8597H6.32753L6.36476 11.8598C6.39765 11.86 6.43831 11.8603 6.48359 11.8597C6.83076 11.8515 7.48884 11.7505 7.48884 10.7717C7.48884 9.61 6.60706 9.62188 6.60706 9.62188ZM6.60706 6.46313C6.60706 6.46313 7.19912 6.46313 7.19912 7.33391C7.19912 8.20428 6.85033 8.33101 6.45588 8.33101H4.16953V6.46313H6.60706Z" fill="#6C6F80"/>
<path fill-rule="evenodd" clip-rule="evenodd" d="M11.3889 10.7391H15.7273C15.7273 10.7391 16.2016 7.10527 12.8126 7.10527C9.59312 7.10527 9.59643 10.3215 9.59643 10.3215C9.59643 10.3215 9.37516 13.5222 12.8126 13.5222C12.8126 13.5222 15.6784 13.6861 15.6784 11.2953H14.2046C14.2046 11.2953 14.253 12.1963 12.8619 12.1963C12.8619 12.1963 11.3889 12.2941 11.3889 10.7391ZM11.3704 9.62188C11.3704 9.62188 11.5501 8.331 12.8434 8.331C14.1376 8.331 14.1201 9.62188 14.1201 9.62188H11.3704Z" fill="#6C6F80"/>
</g>
</g>
</svg>

<svg xmlns="http://www.w3.org/2000/svg" width="18" height="18" fill="none" viewBox="0 0 18 18">
  <path fill="#6C6F80" d="M14.466 5.468h-3.454v1.03h3.454v-1.03Z"/>
  <path fill="#6C6F80" fill-rule="evenodd" d="M6.607 13.347s2.659.084 2.659-2.471c0 0 .116-2.079-1.568-2.079 0 0 1.277-.095 1.277-1.593S7.93 4.975 6.607 4.975H2.25v8.372h4.357Zm0-3.725H4.17v2.238h2.314c.347-.008 1.005-.11 1.005-1.088 0-1.162-.882-1.15-.882-1.15Zm0-3.159s.592 0 .592.87c0 .871-.349.998-.743.998H4.17V6.463h2.437Zm4.782 4.277h4.338s.475-3.635-2.914-3.635c-3.22 0-3.217 3.216-3.217 3.216s-.22 3.201 3.217 3.201c0 0 2.865.164 2.865-2.227h-1.473s.048.901-1.343.901c0 0-1.473.098-1.473-1.457Zm-.019-1.118s.18-1.291 1.473-1.291c1.295 0 1.277 1.29 1.277 1.29h-2.75Z" clip-rule="evenodd"/>
</svg>
